assets/images/linkedin.svg

<svg height="20" viewBox="0 0 20 20" width="20" xmlns="http://www.w3.org/2000/svg"><path d="m4.477 20.01h-4.147v-13.353h4.147zm-2.077-15.175a2.413 2.413 0 1 1 2.4-2.424 2.422 2.422 0 0 1 -2.4 2.424zm17.6 15.175h-4.142v-6.5c0-1.549-.031-3.536-2.156-3.536-2.156 0-2.486 1.683-2.486 3.424v6.612h-4.142v-13.353h3.977v1.821h.058a4.357 4.357 0 0 1 3.923-2.156c4.2 0 4.968 2.763 4.968 6.353z" fill="#fff" transform="translate(0 -.01)"/></svg>

<svg xmlns="http://www.w3.org/2000/svg" width="20" height="20" viewBox="0 0 20 20"><defs><style>.a{fill:#fff;}</style></defs><path class="a" d="M4.477,20.01H.33V6.657H4.477ZM2.4,4.835A2.413,2.413,0,1,1,4.8,2.411,2.422,2.422,0,0,1,2.4,4.835ZM20,20.01H15.858v-6.5c0-1.549-.031-3.536-2.156-3.536-2.156,0-2.486,1.683-2.486,3.424V20.01H7.074V6.657h3.977V8.478h.058a4.357,4.357,0,0,1,3.923-2.156c4.2,0,4.968,2.763,4.968,6.353V20.01Z" transform="translate(0 -0.01)"/></svg>
